P3
8 8
255
255 255 255 255 255 255 127 94 0 127 94 0 127 94 0 127 94 0 255 255 255 255 255 255 
255 255 255 127 94 0 255 191 0 255 191 0 255 191 0 255 191 0 127 94 0 255 255 255
127 94 0 255 191 0 0 128 32 255 191 0 255 191 0 0 128 32 255 191 0 127 94 0
127 94 0 255 191 0 0 128 32 255 191 0 255 191 0 0 128 32 255 191 0 127 94 0
127 94 0 255 191 0 255 191 0 255 191 0 255 191 0 255 191 0 255 191 0 127 94 0
127 94 0 255 191 0 255 0 0 255 0 0 255 0 0 255 0 0 255 191 0 127 94 0
255 255 255 127 94 0 255 191 0 255 0 0 255 0 0 255 191 0 127 94 0 255 255 255
255 255 255 255 255 255 127 94 0 127 94 0 127 94 0 127 94 0 255 255 255 255 255 255